X:156
U: ~ = !turn!
%%topmargin 3cm
T:Paddy Cronin Reel #3
B:Traditional Irish Fiddle Tunes. Randy Miller and Jack Perron.
Z:Transcribed by Ralph Palmer
S:Paddy Cronin
R:Reel
L:1/8
M:C|
K:DAeo
DA, ~A,2 FEFG | AdcA ~d3 e | Jf2 ((3agf) edcA | AdAG FDDE |
DA, ~A,2 FEFG | AdcA d3 e | Jf2 ((3agf) edcA | dcAG ADDc |]
Ad ~d2 Adfd | ((3.d.c.B) cG EFGE | Ad ~d2 Adfd | ((3.A.B.c) de gd^cd |
((3.a.b.a) ga edce | dcAG FDCE | DA, ~A,2 FEFG | Ad c2 d2 z2 |]
